src/assets/outline/Celo.svg

<?xml version="1.0" encoding="UTF-8"?>
<svg width="24" height="24" viewBox="0 0 24 24" xmlns="http://www.w3.org/2000/svg">
 <path d="m15 16.75c-4.27 0-7.75-3.48-7.75-7.75s3.48-7.75 7.75-7.75 7.75 3.48 7.75 7.75-3.48 7.75-7.75 7.75zm0-14c-3.45 0-6.25 2.8-6.25 6.25s2.8 6.25 6.25 6.25 6.25-2.8 6.25-6.25-2.8-6.25-6.25-6.25z"/>
 <path d="m9 22.75c-4.27 0-7.75-3.48-7.75-7.75s3.48-7.75 7.75-7.75 7.75 3.48 7.75 7.75-3.48 7.75-7.75 7.75zm0-14c-3.45 0-6.25 2.8-6.25 6.25s2.8 6.25 6.25 6.25 6.25-2.8 6.25-6.25-2.8-6.25-6.25-6.25z"/>
</svg>

<svg width="24" height="24" viewBox="0 0 24 24"  xmlns="http://www.w3.org/2000/svg">
<path d="M15 16.75C10.73 16.75 7.25 13.27 7.25 9C7.25 4.73 10.73 1.25 15 1.25C19.27 1.25 22.75 4.73 22.75 9C22.75 13.27 19.27 16.75 15 16.75ZM15 2.75C11.55 2.75 8.75 5.55 8.75 9C8.75 12.45 11.55 15.25 15 15.25C18.45 15.25 21.25 12.45 21.25 9C21.25 5.55 18.45 2.75 15 2.75Z" />
<path d="M9 22.75C4.73 22.75 1.25 19.27 1.25 15C1.25 10.73 4.73 7.25 9 7.25C13.27 7.25 16.75 10.73 16.75 15C16.75 19.27 13.27 22.75 9 22.75ZM9 8.75C5.55 8.75 2.75 11.55 2.75 15C2.75 18.45 5.55 21.25 9 21.25C12.45 21.25 15.25 18.45 15.25 15C15.25 11.55 12.45 8.75 9 8.75Z" />
</svg>
